<?xml version="1.0" encoding="UTF-8"?>
<map version="1.10" tiledversion="1.11.2" orientation="orthogonal" renderorder="right-down" width="64" height="32" tilewidth="16" tileheight="16" infinite="0" nextlayerid="4" nextobjectid="2">
 <editorsettings>
  <export target="level.json" format="json"/>
 </editorsettings>
 <tileset firstgid="1" name="Tilemap_color1" tilewidth="16" tileheight="16" tilecount="864" columns="36">
  <image source="Tilemap_color1.png" width="576" height="384"/>
 </tileset>
 <tileset firstgid="865" source="Tilemap_color1.tsx"/>
 <layer id="1" name="world" width="64" height="32">
  <data encoding="csv">
0,0,0,0,0,0,0,0,0,0,0,0,0,0,0,0,0,0,0,0,0,0,0,0,0,0,0,0,0,0,0,0,0,0,0,0,0,0,0,0,0,0,0,0,0,0,0,0,0,0,0,0,0,0,0,0,0,0,0,0,0,0,0,0,
0,0,0,0,0,0,0,0,0,0,0,0,0,0,0,0,0,0,0,0,0,0,0,0,0,0,0,0,0,0,0,0,0,0,0,0,0,0,0,0,0,0,0,0,0,0,0,0,0,0,0,0,0,0,0,0,0,0,0,0,0,0,0,0,
0,0,0,0,0,0,0,0,0,0,0,0,0,0,0,0,0,0,0,0,0,0,0,0,0,0,0,0,0,0,0,0,0,0,0,0,0,0,0,0,0,0,0,0,0,0,0,0,0,0,0,0,0,0,0,0,0,0,0,0,0,0,0,0,
0,0,0,0,0,0,0,0,0,0,0,0,0,0,0,0,0,0,0,0,0,0,0,0,0,0,0,0,0,0,0,0,0,0,0,0,0,0,0,0,0,0,0,0,0,0,0,0,0,0,0,0,0,0,0,0,0,0,0,0,0,0,0,0,
0,0,0,0,0,0,0,0,0,0,0,0,0,0,0,0,0,0,0,0,0,0,0,0,0,0,0,0,0,0,0,0,0,0,0,0,0,0,0,0,0,0,0,0,0,0,0,0,0,0,0,0,0,0,0,0,0,0,0,0,0,0,0,0,
0,0,0,0,0,0,0,0,0,0,0,0,0,0,0,0,0,0,0,0,0,0,0,0,0,0,0,0,0,0,0,0,0,0,0,0,0,0,0,0,0,0,0,0,0,0,0,0,0,0,0,0,0,0,0,0,0,0,0,0,0,0,0,0,
0,0,0,0,0,0,0,0,0,0,0,0,0,0,0,0,0,0,0,0,0,0,0,0,0,0,0,0,0,0,0,0,0,0,0,0,0,0,0,0,0,0,0,0,0,0,0,0,0,0,0,0,0,0,0,0,0,0,0,0,0,0,0,0,
0,0,0,0,0,0,0,0,0,0,0,0,0,0,0,0,0,0,0,0,0,0,0,0,0,0,0,0,0,0,0,0,0,0,0,0,0,0,0,0,0,0,0,0,0,0,0,0,0,0,0,0,0,0,0,0,0,0,0,0,0,0,0,0,
0,0,0,0,0,0,1,2,3,4,2,3,4,5,6,7,8,9,10,2,3,4,5,6,7,8,9,10,2,3,4,5,6,7,8,9,10,2,3,4,5,6,7,8,9,10,0,0,0,0,0,0,0,0,0,0,0,0,0,0,0,0,0,0,
0,0,0,0,0,0,37,38,39,40,38,39,40,41,42,43,44,45,46,38,39,40,41,42,43,44,45,46,38,39,40,41,42,43,44,45,46,38,39,40,41,42,43,44,45,46,0,0,0,0,0,0,0,0,0,0,0,0,0,0,0,0,0,0,
0,0,0,0,0,0,73,74,75,76,111,112,113,114,115,116,117,118,111,112,113,114,115,116,117,118,111,112,113,114,115,116,117,118,111,112,113,114,115,116,117,118,0,0,0,0,0,0,0,0,0,0,0,0,0,0,0,0,0,0,0,0,0,0,
0,0,0,0,0,0,109,110,111,112,147,148,149,150,151,152,153,154,147,148,149,150,151,152,153,154,147,148,149,150,151,152,153,154,147,148,149,150,151,152,153,154,0,0,0,0,0,0,0,0,0,0,0,0,0,0,0,0,0,0,0,0,0,0,
0,0,0,0,0,0,145,146,147,148,183,184,185,186,187,188,189,190,183,184,185,186,187,188,189,190,183,184,185,186,187,188,189,190,183,184,185,186,187,188,189,190,0,0,0,0,0,0,0,0,0,0,0,0,0,0,0,0,0,0,0,0,0,0,
0,0,0,0,0,0,181,182,183,184,219,220,221,222,223,224,225,226,219,220,221,222,223,224,225,226,219,220,221,222,223,224,225,226,219,220,221,222,223,224,225,226,0,0,0,0,0,0,0,0,0,0,0,0,0,0,0,0,0,0,0,0,0,0,
0,0,0,0,0,0,217,218,219,220,255,256,257,258,259,260,261,262,255,256,257,258,259,260,261,262,255,256,257,258,259,260,261,262,255,256,257,258,259,260,261,262,0,0,0,0,0,0,0,0,0,0,0,0,0,0,0,0,0,0,0,0,0,0,
0,0,0,0,0,0,253,254,255,256,291,292,293,294,295,296,297,298,291,292,293,294,295,296,297,298,291,292,293,294,295,296,297,298,291,292,293,294,295,296,297,298,0,0,0,0,0,0,0,0,0,0,0,0,0,0,0,0,0,0,0,0,0,0,
0,0,0,0,0,0,289,290,291,292,327,328,329,330,331,332,333,334,327,328,329,330,331,332,333,334,327,328,329,330,331,332,333,334,327,328,329,330,331,332,333,334,0,0,0,0,0,0,0,0,0,0,0,0,0,0,0,0,0,0,0,0,0,0,
0,0,0,0,0,0,325,326,327,75,76,77,78,79,80,81,82,75,76,77,78,79,80,81,82,75,76,77,78,79,80,81,82,75,76,77,78,79,80,81,82,81,82,0,0,0,0,0,0,0,0,0,0,0,0,0,0,0,0,0,0,0,0,0,
0,0,0,0,0,0,145,146,363,111,112,113,114,115,116,117,118,111,112,113,114,115,116,117,118,111,112,113,114,115,116,117,118,111,112,113,114,115,116,117,118,117,118,0,0,0,0,0,0,0,0,0,0,0,0,0,0,0,0,0,0,0,0,0,
0,0,0,0,0,0,181,182,222,147,148,149,150,151,152,153,154,147,148,149,150,151,152,153,154,147,148,149,150,151,152,153,154,147,148,149,150,151,152,153,154,153,154,0,0,0,0,0,0,0,0,0,0,0,0,0,0,0,0,0,0,0,0,0,
0,0,0,0,0,0,217,218,258,183,184,185,186,187,188,189,190,183,184,185,186,187,188,189,190,183,184,185,186,187,188,189,190,183,184,185,186,187,188,189,190,189,190,0,0,0,0,0,0,0,0,0,0,0,0,0,0,0,0,0,0,0,0,0,
0,0,0,0,0,0,253,254,294,219,220,221,222,223,224,225,226,219,220,221,222,223,224,225,226,219,220,221,222,223,224,225,226,219,220,221,222,223,224,225,226,225,226,0,0,0,0,0,0,0,0,0,0,0,0,0,0,0,0,0,0,0,0,0,
0,0,0,0,0,0,289,290,291,255,256,257,258,259,260,261,262,255,256,257,258,259,260,261,262,255,256,257,258,259,260,261,262,255,256,257,258,259,260,261,262,261,262,0,0,0,0,0,0,0,0,0,0,0,0,0,0,0,0,0,0,0,0,0,
0,0,0,0,0,0,325,326,327,291,292,293,294,295,296,297,298,291,292,293,294,295,296,297,298,291,292,293,294,295,296,297,298,291,292,293,294,295,296,297,298,297,298,0,0,0,0,0,0,0,0,0,0,0,0,0,0,0,0,0,0,0,0,0,
0,0,0,0,0,0,361,362,363,327,328,329,330,331,332,333,334,327,328,329,330,331,332,333,334,327,328,329,330,331,332,333,334,327,328,329,330,331,332,333,334,333,334,0,0,0,0,0,0,0,0,0,0,0,0,0,0,0,0,0,0,0,0,0,
0,0,0,0,0,0,397,398,399,400,398,399,400,401,402,403,404,405,1268,1269,401,402,399,400,401,402,403,404,405,406,407,1268,1269,399,400,401,402,403,404,405,406,407,408,0,0,0,0,0,0,0,0,0,0,0,0,0,0,0,0,0,0,0,0,0,
0,0,0,0,0,0,0,0,0,0,0,0,0,0,0,0,0,0,0,0,0,0,0,0,0,0,0,0,0,0,0,0,0,0,0,0,0,0,0,0,0,0,0,0,0,0,0,0,0,0,0,0,0,0,0,0,0,0,0,0,0,0,0,0,
0,0,0,0,0,0,0,0,0,0,0,0,0,0,0,0,0,0,0,0,0,0,0,0,0,0,0,0,0,0,0,0,0,0,0,0,0,0,0,0,0,0,0,0,0,0,0,0,0,0,0,0,0,0,0,0,0,0,0,0,0,0,0,0,
0,0,0,0,0,0,0,0,0,0,0,0,0,0,0,0,0,0,0,0,0,0,0,0,0,0,0,0,0,0,0,0,0,0,0,0,0,0,0,0,0,0,0,0,0,0,0,0,0,0,0,0,0,0,0,0,0,0,0,0,0,0,0,0,
0,0,0,0,0,0,0,0,0,0,0,0,0,0,0,0,0,0,0,0,0,0,0,0,0,0,0,0,0,0,0,0,0,0,0,0,0,0,0,0,0,0,0,0,0,0,0,0,0,0,0,0,0,0,0,0,0,0,0,0,0,0,0,0,
0,0,0,0,0,0,0,0,0,0,0,0,0,0,0,0,0,0,0,0,0,0,0,0,0,0,0,0,0,0,0,0,0,0,0,0,0,0,0,0,0,0,0,0,0,0,0,0,0,0,0,0,0,0,0,0,0,0,0,0,0,0,0,0,
0,0,0,0,0,0,0,0,0,0,0,0,0,0,0,0,0,0,0,0,0,0,0,0,0,0,0,0,0,0,0,0,0,0,0,0,0,0,0,0,0,0,0,0,0,0,0,0,0,0,0,0,0,0,0,0,0,0,0,0,0,0,0,0
</data>
 </layer>
 <objectgroup id="3" name="player">
  <object id="1" name="PlayerSpawn" x="318" y="268">
   <point/>
  </object>
 </objectgroup>
</map>
